X:9988
T:Långdans från Sollerön
N:Efter Reser Anna
A:Sollerön (Dalarna)
O:Sweden
M:3/4
L:1/4
Q:1/4=120
K:Dm
A^cd|e>gf|df/e/ d/^c/|d>^c A|\
A^cd|e>gf|df/e/ d/^c/|d3::\
age|g>ef|fag|eg/e/f|df/e/ d/^c/|d3:|\
T:Oktav
A,^CD|E>GF|DF/E/ D/^C/|D>^C A,|\
A,^CD|E>GF|DF/E/ D/^C/|D3::\
AGE|G>EF|FAG|EG/E/F|DF/E/ D/^C/|D3:|


